actions/24/pane-hide-symbolic.svg

<?xml version="1.0" encoding="UTF-8" standalone="no"?>
<svg
   height="24"
   width="24"
   version="1.1"
   id="svg7218"
   sodipodi:docname="pane-hide-symbolic.svg"
   inkscape:version="1.2.2 (b0a8486541, 2022-12-01)"
   xmlns:inkscape="http://www.inkscape.org/namespaces/inkscape"
   xmlns:sodipodi="http://sodipodi.sourceforge.net/DTD/sodipodi-0.dtd"
   xmlns="http://www.w3.org/2000/svg"
   xmlns:svg="http://www.w3.org/2000/svg">
  <defs
     id="defs7222" />
  <sodipodi:namedview
     id="namedview7220"
     pagecolor="#ffffff"
     bordercolor="#000000"
     borderopacity="0.25"
     inkscape:showpageshadow="2"
     inkscape:pageopacity="0.0"
     inkscape:pagecheckerboard="0"
     inkscape:deskcolor="#d1d1d1"
     showgrid="false"
     inkscape:zoom="32"
     inkscape:cx="14.15625"
     inkscape:cy="15.5625"
     inkscape:window-width="1278"
     inkscape:window-height="1005"
     inkscape:window-x="218"
     inkscape:window-y="23"
     inkscape:window-maximized="0"
     inkscape:current-layer="svg7218" />
  <path
     id="path2"
     style="fill:#555761;fill-opacity:1;marker:none"
     d="M 16.5,2 C 16.777,2 17,2.2230003 17,2.5 v 1 C 17,3.7769997 16.777,4 16.5,4 H 8 C 7.446001,4 7,4.4460006 7,5 v 13 c 0,0.553999 0.446001,1 1,1 h 8.5 c 0.277,0 0.5,0.223 0.5,0.5 v 1 C 17,20.777 16.777,21 16.5,21 H 7 C 5.892001,21 5,20.107999 5,19 V 4 C 5,2.8920011 5.892001,2 7,2 Z"
     sodipodi:nodetypes="cssccssccssccsscc" />
  <path
     id="rect3396"
     style="fill:#555761;fill-opacity:1;stroke:none;stroke-width:0.999995;stroke-linejoin:round;stroke-opacity:0.5;stop-color:#000000"
     d="M 17.003906,6.75 C 16.862242,6.7492598 16.719996,6.778978 16.585938,6.839844 16.229132,7.002179 16.000061,7.3580011 16,7.75 V 10 h -5 c -0.553998,0 -1,0.446002 -1,1 v 1 c 0,0.553998 0.446002,1 1,1 h 5 v 2.249024 c 9.5e-4,0.858428 1.011819,1.316832 1.658203,0.751952 L 22.159,12.251953 c 0.454309,-0.398371 0.454309,-1.105535 0,-1.503906 L 17.658203,6.9980469 C 17.473588,6.836401 17.240014,6.7512337 17.003906,6.75 Z"
     sodipodi:nodetypes="scccssssccccccs" />
</svg>

<svg
        xmlns='http://www.w3.org/2000/svg'
        xmlns:svg='http://www.w3.org/2000/svg'
        id='svg7218'
        width='24'
        height='24'>
  <path
          id='path2'
          fill='url(#gpa:foreground) #555761'
          fill-opacity='1'
          fill-rule='nonzero'
          marker-start='none'
          marker-mid='none'
          marker-end='none'
          d='M 16.5 2 C 16.777 2, 17 2.223, 17 2.5 L 17 3.5 C 17 3.777, 16.777 4, 16.5 4 L 8 4 C 7.446 4, 7 4.446, 7 5 L 7 18 C 7 18.554, 7.446 19, 8 19 L 16.5 19 C 16.777 19, 17 19.223, 17 19.5 L 17 20.5 C 17 20.777, 16.777 21, 16.5 21 L 7 21 C 5.892 21, 5 20.108, 5 19 L 5 4 C 5 2.892, 5.892 2, 7 2 Z'
          class="foreground">
  </path>
  <path
          id='rect3396'
          fill='url(#gpa:foreground) #555761'
          fill-opacity='1'
          fill-rule='nonzero'
          stroke='none'
          stroke-opacity='0.5'
          stroke-width='0.999995'
          stroke-linejoin='round'
          d='M 17.0039 6.75 C 16.8622 6.74926, 16.72 6.77898, 16.5859 6.83984 C 16.2291 7.00218, 16.0001 7.358, 16 7.75 L 16 10 L 11 10 C 10.446 10, 10 10.446, 10 11 L 10 12 C 10 12.554, 10.446 13, 11 13 L 16 13 L 16 15.249 C 16.0009 16.1075, 17.0118 16.5659, 17.6582 16.001 L 22.159 12.252 C 22.6133 11.8536, 22.6133 11.1464, 22.159 10.748 L 17.6582 6.99805 C 17.4736 6.8364, 17.24 6.75123, 17.0039 6.75 Z'
          class="foreground">
  </path>
</svg>
